images/client02.svg

<svg fill="none" height="200" viewBox="0 0 200 200" width="200" xmlns="http://www.w3.org/2000/svg"><path d="m179.888 102.524s-.033.073-.151.073h-9.348c-.151 0-.223.073-.223.073s-.112.039-.112.224v10.038c0 .152-.073.186-.073.186s-.039.079-.15.079h-7.432c-.106 0-.184-.079-.184-.079s-.039-.034-.039-.219v-10.044c0-.107-.09-.185-.09-.185s-.056-.073-.151-.073h-9.594c-.184 0-.218-.04-.218-.04s-.072-.073-.072-.298v-7.3454c0-.09.072-.1855.072-.1855s.034-.0337.112-.0337h9.795c.078 0 .078-.0394.078-.0394s.068-.0393.068-.1124v-8.7958c0-.1068.039-.1855.039-.1855s.078-.0393.296-.0393h7.286c.145 0 .184.0393.184.0393s.073.0787.073.2248v8.8296h9.521c.241 0 .313.0393.313.0393s.112.0394.112.2586v7.4244c0 .073-.112.186-.112.186zm-29.005 10.341c-.034.219-.073.292-.073.292s-.039.079-.223.079h-15.07c-.436 0-.553-.118-.553-.118s-.073-.146-.039-.478l3.738-26.1289c.039-.3147.112-.4271.112-.4271h.385 6.862c.184 0 .24.0337.24.0337s.039.1181 0 .2642l-2.811 20.4191c-.039.219.073.241.073.241s.073.04.374.04h7.449c.162 0 .218.067.218.067s.039.039.039.225zm-19.205.405h-6.694c-.145.073-.262-.073-.262-.073s-.034-.04-.073-.265l-.888-4.164c-.073-.203-.146-.315-.146-.315s-.184-.112-.407-.112h-8.706c-.168 0-.279.112-.279.112s-.146.129-.224.354l-1.978 4.243c-.033.107-.106.147-.106.147s-.151.039-.224.039h-7.543c-.184.034-.24-.079-.24-.079s-.034-.073.056-.225l13.293-26.6625c.072-.0337.145-.1518.145-.1518s.078-.0337.296-.0337h8.231c.184 0 .29.1124.29.1124s.039.0394.078.1461l5.527 26.7755c0 .079-.039.118-.039.118s-.001.034-.107.034zm-31.374-.034h-6.6941c-.1117 0-.2179 0-.2179 0s-.0223-.039-.0614-.079l-9.2978-16.5854c-.0727-.0731-.1062-.0731-.1062-.0731s-.0782 0-.0782.1068l-2.3077 16.2937c-.0391.185-.0782.219-.0782.219s-.0727.039-.1844.039h-6.6549c-.1061 0-.1844-.073-.1844-.073s-.1452-.152-.0894-.298l3.6376-26.3648c.0391-.1517.1173-.1854.1173-.1854s.1062-.1181.2179-.1181h7.4316c.1117 0 .1843.0787.1843.0787s.0727.0394.1118.1461l8.3758 14.7875c.1453.292.2571.258.2571.258s.1117 0 .1844-.337l2.1121-14.7085c0-.1067.067-.1461.067-.1461s.0391-.0787.1509-.0787l6.9848.0787c.151 0 .19.0394.19.0394s.033.0337.033.1067l-3.771 26.5895c-.04.152-.107.265-.107.265s-.039.039-.223.039zm-29.268-.079-6.504.04c-.1509 0-.257-.079-.257-.079s-.0391-.034-.0783-.292l-1.0169-4.244c0-.09-.067-.129-.067-.129s-.0392 0-.1174 0h-9.186c-.1844 0-.2962.129-.2962.129s-.1452.113-.257.371l-1.8327 3.946c-.0727.151-.1118.185-.1118.185s-.1062.073-.2011.073h-7.5768c-.2235.04-.2627-.073-.2627-.073s-.0391-.112.0392-.258l13.142-26.5565c.0559-.1518.1677-.1855.1677-.1855h.257 8.3758c.1509 0 .257.1124.257.1124s.0392.0394.0783.1461l5.6323 26.6295c0 .112-.0671.146-.0671.146s-.0391.039-.1173.039zm49.624-19.39s-.04 0-.079.1461l-3.654 8.3129c-.078.258-.039.298-.039.298s.106.073.184.073l5.415-.04h.072s.039-.033 0-.146l-1.827-8.5372c-.033-.1068-.072-.1068-.072-.1068zm-60.7322.1068s-.0335 0-.0726.0787l-3.6599 8.3465c-.0727.112-.0391.185-.0391.185s.0391.04.2235.04l5.3753.033c.0391 0 .0558-.033.0558-.033s.0392-.04 0-.152l-1.8495-8.4195c0-.0787-.0335-.0787-.0335-.0787zm-18.7408 18.3562c-.0392.292-.1844.517-.1844.517s-.1565.152-.3912.225c-3.5313 1.433-7.4371.95-7.4371.95-6.3363-.686-10.3482-4.598-11.6446-9.634-1.9053-7.5478 1.8719-12.904 2.7938-14.0562 2.2183-2.6809 5.6938-4.5918 9.1135-5.0414 4.3471-.6126 7.5656.4103 8.8954.8599 0 0 1.4584.4608 2.548 1.2084.5532.3709.6314.517.6314.517s.0335.0787-.1174.652l-1.0281 5.4068c-.0391.2248-.1732.3372-.1732.3372s-.0726.0393-.5923-.2979c-3.2855-2.3437-7.1298-2.0627-7.1298-2.0627-2.9223.1855-6.3419 1.7311-7.3589 5.6316-.9052 3.4623.0391 6.3623 2.0842 8.0873 1.3913 1.231 3.5537 1.844 5.8279 1.737 2.4753-.185 4.4533-1.175 4.308-1.101 0 0 .1062-.04.2236-.074.514-.258.6258-.224.6258-.224s.1117.112.0335.449z" fill="#fff"/></svg>

<svg width="200" height="200" viewBox="0 0 200 200" fill="none" xmlns="http://www.w3.org/2000/svg">
<path d="M179.888 102.524C179.888 102.524 179.855 102.597 179.737 102.597H170.389C170.238 102.597 170.166 102.67 170.166 102.67C170.166 102.67 170.054 102.709 170.054 102.894V112.932C170.054 113.084 169.981 113.118 169.981 113.118C169.981 113.118 169.942 113.197 169.831 113.197H162.399C162.293 113.197 162.215 113.118 162.215 113.118C162.215 113.118 162.176 113.084 162.176 112.899V102.855C162.176 102.748 162.086 102.67 162.086 102.67C162.086 102.67 162.03 102.597 161.935 102.597H152.341C152.157 102.597 152.123 102.557 152.123 102.557C152.123 102.557 152.051 102.484 152.051 102.259V94.9136C152.051 94.8236 152.123 94.7281 152.123 94.7281C152.123 94.7281 152.157 94.6944 152.235 94.6944H162.03C162.108 94.6944 162.108 94.655 162.108 94.655C162.108 94.655 162.176 94.6157 162.176 94.5426V85.7468C162.176 85.64 162.215 85.5613 162.215 85.5613C162.215 85.5613 162.293 85.522 162.511 85.522H169.797C169.942 85.522 169.981 85.5613 169.981 85.5613C169.981 85.5613 170.054 85.64 170.054 85.7861V94.6157H179.575C179.816 94.6157 179.888 94.655 179.888 94.655C179.888 94.655 180 94.6944 180 94.9136V102.338C180 102.411 179.888 102.524 179.888 102.524ZM150.883 112.865C150.849 113.084 150.81 113.157 150.81 113.157C150.81 113.157 150.771 113.236 150.587 113.236H135.517C135.081 113.236 134.964 113.118 134.964 113.118C134.964 113.118 134.891 112.972 134.925 112.64L138.663 86.5111C138.702 86.1964 138.775 86.084 138.775 86.084C138.775 86.084 138.814 86.084 139.16 86.084H146.022C146.206 86.084 146.262 86.1177 146.262 86.1177C146.262 86.1177 146.301 86.2358 146.262 86.3819L143.451 106.801C143.412 107.02 143.524 107.042 143.524 107.042C143.524 107.042 143.597 107.082 143.898 107.082H151.347C151.509 107.082 151.565 107.149 151.565 107.149C151.565 107.149 151.604 107.188 151.604 107.374L150.883 112.865ZM131.678 113.27H124.984C124.839 113.343 124.722 113.197 124.722 113.197C124.722 113.197 124.688 113.157 124.649 112.932L123.761 108.768C123.688 108.565 123.615 108.453 123.615 108.453C123.615 108.453 123.431 108.341 123.208 108.341H114.502C114.334 108.341 114.223 108.453 114.223 108.453C114.223 108.453 114.077 108.582 113.999 108.807L112.021 113.05C111.988 113.157 111.915 113.197 111.915 113.197C111.915 113.197 111.764 113.236 111.691 113.236H104.148C103.964 113.27 103.908 113.157 103.908 113.157C103.908 113.157 103.874 113.084 103.964 112.932L117.257 86.2695C117.329 86.2358 117.402 86.1177 117.402 86.1177C117.402 86.1177 117.48 86.084 117.698 86.084H125.929C126.113 86.084 126.219 86.1964 126.219 86.1964C126.219 86.1964 126.258 86.2358 126.297 86.3425L131.824 113.118C131.824 113.197 131.785 113.236 131.785 113.236C131.785 113.236 131.784 113.27 131.678 113.27ZM100.304 113.236H93.6099C93.4982 113.236 93.392 113.236 93.392 113.236C93.392 113.236 93.3697 113.197 93.3306 113.157L84.0328 96.5716C83.9601 96.4985 83.9266 96.4985 83.9266 96.4985C83.9266 96.4985 83.8484 96.4985 83.8484 96.6053L81.5407 112.899C81.5016 113.084 81.4625 113.118 81.4625 113.118C81.4625 113.118 81.3898 113.157 81.2781 113.157H74.6232C74.5171 113.157 74.4388 113.084 74.4388 113.084C74.4388 113.084 74.2936 112.932 74.3494 112.786L77.987 86.4212C78.0261 86.2695 78.1043 86.2358 78.1043 86.2358C78.1043 86.2358 78.2105 86.1177 78.3222 86.1177H85.7538C85.8655 86.1177 85.9381 86.1964 85.9381 86.1964C85.9381 86.1964 86.0108 86.2358 86.0499 86.3425L94.4257 101.13C94.571 101.422 94.6828 101.388 94.6828 101.388C94.6828 101.388 94.7945 101.388 94.8672 101.051L96.9793 86.3425C96.9793 86.2358 97.0463 86.1964 97.0463 86.1964C97.0463 86.1964 97.0854 86.1177 97.1972 86.1177L104.182 86.1964C104.333 86.1964 104.372 86.2358 104.372 86.2358C104.372 86.2358 104.405 86.2695 104.405 86.3425L100.634 112.932C100.594 113.084 100.527 113.197 100.527 113.197C100.527 113.197 100.488 113.236 100.304 113.236ZM71.036 113.157L64.532 113.197C64.3811 113.197 64.275 113.118 64.275 113.118C64.275 113.118 64.2359 113.084 64.1967 112.826L63.1798 108.582C63.1798 108.492 63.1128 108.453 63.1128 108.453C63.1128 108.453 63.0736 108.453 62.9954 108.453H53.8094C53.625 108.453 53.5132 108.582 53.5132 108.582C53.5132 108.582 53.368 108.695 53.2562 108.953L51.4235 112.899C51.3508 113.05 51.3117 113.084 51.3117 113.084C51.3117 113.084 51.2055 113.157 51.1106 113.157H43.5338C43.3103 113.197 43.2711 113.084 43.2711 113.084C43.2711 113.084 43.232 112.972 43.3103 112.826L56.4523 86.2695C56.5082 86.1177 56.62 86.084 56.62 86.084C56.62 86.084 56.6926 86.084 56.877 86.084H65.2528C65.4037 86.084 65.5098 86.1964 65.5098 86.1964C65.5098 86.1964 65.549 86.2358 65.5881 86.3425L71.2204 112.972C71.2204 113.084 71.1533 113.118 71.1533 113.118C71.1533 113.118 71.1142 113.157 71.036 113.157ZM120.66 93.767C120.66 93.767 120.62 93.767 120.581 93.9131L116.927 102.226C116.849 102.484 116.888 102.524 116.888 102.524C116.888 102.524 116.994 102.597 117.072 102.597L122.487 102.557C122.526 102.557 122.559 102.557 122.559 102.557C122.559 102.557 122.598 102.524 122.559 102.411L120.732 93.8738C120.699 93.767 120.66 93.767 120.66 93.767ZM59.9278 93.8738C59.9278 93.8738 59.8943 93.8738 59.8552 93.9525L56.1953 102.299C56.1226 102.411 56.1562 102.484 56.1562 102.484C56.1562 102.484 56.1953 102.524 56.3797 102.524L61.755 102.557C61.7941 102.557 61.8108 102.524 61.8108 102.524C61.8108 102.524 61.85 102.484 61.8108 102.372L59.9613 93.9525C59.9613 93.8738 59.9278 93.8738 59.9278 93.8738ZM41.187 112.23C41.1478 112.522 41.0026 112.747 41.0026 112.747C41.0026 112.747 40.8461 112.899 40.6114 112.972C37.0801 114.405 33.1743 113.922 33.1743 113.922C26.838 113.236 22.8261 109.324 21.5297 104.288C19.6244 96.7402 23.4016 91.384 24.3235 90.2318C26.5418 87.5509 30.0173 85.64 33.437 85.1904C37.7841 84.5778 41.0026 85.6007 42.3324 86.0503C42.3324 86.0503 43.7908 86.5111 44.8804 87.2587C45.4336 87.6296 45.5118 87.7757 45.5118 87.7757C45.5118 87.7757 45.5453 87.8544 45.3944 88.4277L44.3663 93.8345C44.3272 94.0593 44.1931 94.1717 44.1931 94.1717C44.1931 94.1717 44.1205 94.211 43.6008 93.8738C40.3153 91.5301 36.471 91.8111 36.471 91.8111C33.5487 91.9966 30.1291 93.5422 29.1121 97.4427C28.2069 100.905 29.1512 103.805 31.1963 105.53C32.5876 106.761 34.75 107.374 37.0242 107.267C39.4995 107.082 41.4775 106.092 41.3322 106.166C41.3322 106.166 41.4384 106.126 41.5558 106.092C42.0698 105.834 42.1816 105.868 42.1816 105.868C42.1816 105.868 42.2933 105.98 42.2151 106.317L41.187 112.23Z" fill="white"/>
</svg>
